docs/images/icons/inst.svg

<svg width="20.000000" height="20.000000" viewBox="0 0 20 20" fill="none" xmlns="http://www.w3.org/2000/svg" xmlns:xlink="http://www.w3.org/1999/xlink">
	<desc>
			Created with Pixso.
	</desc>
	<defs/>
	<path id="Vector" d="M10 1.6665C12.2642 1.6665 12.5467 1.6748 13.435 1.71631C14.3225 1.7583 14.9267 1.89746 15.4584 2.104C16.0083 2.31543 16.4717 2.60254 16.935 3.06494C17.3588 3.48145 17.6866 3.98535 17.8959 4.5415C18.1017 5.07227 18.2417 5.67725 18.2834 6.56494C18.3225 7.45312 18.3334 7.73584 18.3334 10C18.3334 12.2642 18.325 12.5464 18.2834 13.4351C18.2417 14.3223 18.1017 14.9263 17.8959 15.458C17.6873 16.0146 17.3593 16.5186 16.935 16.9351C16.5183 17.3584 16.0145 17.6865 15.4584 17.8955C14.9275 18.1016 14.3225 18.2417 13.435 18.2832C12.5467 18.3223 12.2642 18.333 10 18.333C7.73586 18.333 7.45335 18.3247 6.56502 18.2832C5.67752 18.2417 5.07335 18.1016 4.54169 17.8955C3.98529 17.687 3.48129 17.3589 3.06502 16.9351C2.64119 16.5186 2.31329 16.0142 2.10419 15.458C1.89752 14.9272 1.75835 14.3223 1.71669 13.4351C1.67752 12.5464 1.66669 12.2642 1.66669 10C1.66669 7.73584 1.67502 7.45312 1.71669 6.56494C1.75835 5.67627 1.89752 5.07324 2.10419 4.5415C2.31271 3.98486 2.64069 3.48096 3.06502 3.06494C3.48141 2.64062 3.98538 2.31299 4.54169 2.104C5.07335 1.89746 5.67668 1.7583 6.56502 1.71631C7.45335 1.67725 7.73586 1.6665 10 1.6665ZM10 5.83301C8.89496 5.83301 7.83514 6.27197 7.05374 7.05371C6.27234 7.83496 5.83336 8.89453 5.83336 10C5.83336 11.105 6.27234 12.1646 7.05374 12.9463C7.83514 13.7275 8.89496 14.1665 10 14.1665C11.1051 14.1665 12.1649 13.7275 12.9463 12.9463C13.7277 12.1646 14.1667 11.105 14.1667 10C14.1667 8.89453 13.7277 7.83496 12.9463 7.05371C12.1649 6.27197 11.1051 5.83301 10 5.83301ZM15.4167 5.625C15.4167 5.34863 15.3069 5.0835 15.1116 4.88818C14.9162 4.69287 14.6513 4.58301 14.375 4.58301C14.0988 4.58301 13.8338 4.69287 13.6384 4.88818C13.4431 5.0835 13.3334 5.34863 13.3334 5.625C13.3334 5.90088 13.4431 6.16602 13.6384 6.36133C13.8338 6.55664 14.0988 6.6665 14.375 6.6665C14.6513 6.6665 14.9162 6.55664 15.1116 6.36133C15.3069 6.16602 15.4167 5.90088 15.4167 5.625ZM10 7.5C10.6631 7.5 11.299 7.76318 11.7678 8.23193C12.2366 8.70068 12.5 9.33691 12.5 10C12.5 10.6631 12.2366 11.2988 11.7678 11.7676C11.299 12.2363 10.6631 12.5 10 12.5C9.33698 12.5 8.7011 12.2363 8.23225 11.7676C7.76341 11.2988 7.50002 10.6631 7.50002 10C7.50002 9.33691 7.76341 8.70068 8.23225 8.23193C8.7011 7.76318 9.33698 7.5 10 7.5Z" fill="#BDBDC0" fill-opacity="1.000000" fill-rule="nonzero"/>
</svg>

<svg width="20" height="20" fill="none" xmlns="http://www.w3.org/2000/svg"><path d="M10 1.667c2.264 0 2.547.008 3.435.05.887.041 1.492.18 2.023.387a4.07 4.07 0 0 1 1.477.96c.424.417.752.921.96 1.478.207.53.347 1.135.388 2.023.04.888.05 1.17.05 3.435 0 2.264-.008 2.546-.05 3.435-.041.887-.181 1.491-.387 2.023a4.072 4.072 0 0 1-.961 1.477 4.08 4.08 0 0 1-1.477.96c-.53.207-1.136.347-2.023.388-.888.04-1.17.05-3.435.05-2.264 0-2.547-.008-3.435-.05-.887-.041-1.492-.181-2.023-.388a4.074 4.074 0 0 1-1.477-.96 4.088 4.088 0 0 1-.96-1.477c-.207-.53-.347-1.136-.388-2.023-.04-.889-.05-1.17-.05-3.435 0-2.264.008-2.547.05-3.435.041-.889.18-1.492.387-2.024.209-.556.537-1.06.961-1.476.416-.424.92-.752 1.477-.961.531-.207 1.135-.346 2.023-.388.888-.039 1.17-.05 3.435-.05Zm0 4.166a4.166 4.166 0 1 0 0 8.331 4.166 4.166 0 0 0 0-8.331Zm5.417-.208a1.042 1.042 0 1 0-2.085 0 1.042 1.042 0 0 0 2.085 0ZM10 7.5a2.5 2.5 0 1 1 0 5 2.5 2.5 0 0 1 0-5Z" fill="#BDBDC0"/></svg>
